src/shared/assets/dialog/dialog-voice.svg

<svg width="24" height="24" viewBox="0 0 24 24" fill="none" xmlns="http://www.w3.org/2000/svg">
<path fill-rule="evenodd" clip-rule="evenodd" d="M7.85869 2.5473C8.91079 1.55507 10.3675 1 12.0401 1C13.7127 1 15.1694 1.55507 16.2215 2.5473C17.2719 3.53791 17.8724 4.91997 17.923 6.49723C17.9469 7.2377 17.9612 8.0893 17.9612 9.06668C17.9612 10.044 17.9469 10.8956 17.923 11.6361C17.8724 13.2133 17.2719 14.5954 16.2215 15.586C15.1694 16.5783 13.7127 17.1333 12.0401 17.1333C10.3675 17.1333 8.91079 16.5783 7.85869 15.586C6.80834 14.5954 6.20783 13.2133 6.15717 11.6361C6.13338 10.8956 6.11902 10.044 6.11902 9.06668C6.11902 8.0893 6.13338 7.2377 6.15717 6.49723C6.20783 4.91997 6.80834 3.53791 7.85869 2.5473ZM4.60305 9.80002C4.68136 9.80002 4.75866 9.80427 4.83466 9.81263C4.84001 10.4971 4.85263 11.1154 4.87054 11.6733C4.93012 13.5264 5.64147 15.2176 6.95163 16.4532C8.26637 17.6931 10.0593 18.3556 12.0401 18.3556C14.0209 18.3556 15.8138 17.6931 17.1286 16.4532C18.4387 15.2176 19.1501 13.5264 19.2097 11.6733C19.2276 11.1134 19.2402 10.4927 19.2456 9.80534C19.2956 9.80182 19.3461 9.80002 19.397 9.80002H19.955C21.1092 9.80002 22.0285 10.7127 21.9993 11.798C21.8723 16.5239 18.8032 20.0048 14.2131 20.8479C14.1834 21.1225 14.1486 21.3967 14.1082 21.6709C14.0109 22.3303 13.474 22.9289 12.6687 22.981C12.492 22.9925 12.2835 23 12.0403 23C11.7971 23 11.5886 22.9925 11.4119 22.981C10.6067 22.9289 10.0691 22.3303 9.97303 21.6693C9.93416 21.402 9.90053 21.1326 9.8716 20.8632C5.2357 20.0478 2.1285 16.554 2.00068 11.798C1.97151 10.7127 2.89084 9.80002 4.04499 9.80002H4.60305Z" fill="black" fill-opacity="0.2"/>
</svg>

<svg xmlns="http://www.w3.org/2000/svg" fill="none" viewBox="0 0 24 24"><path fill="#000" fill-opacity=".2" fill-rule="evenodd" d="M7.859 2.547C8.91 1.555 10.367 1 12.04 1s3.13.555 4.182 1.547c1.05.99 1.65 2.373 1.701 3.95.024.74.038 1.592.038 2.57s-.014 1.829-.038 2.57c-.05 1.576-.651 2.958-1.701 3.949-1.053.992-2.51 1.547-4.182 1.547s-3.13-.555-4.181-1.547c-1.05-.99-1.651-2.373-1.702-3.95a80 80 0 0 1-.038-2.57c0-.977.014-1.828.038-2.569.05-1.577.651-2.96 1.702-3.95M4.603 9.8q.118 0 .232.013.008 1.024.036 1.86c.06 1.853.77 3.545 2.08 4.78 1.315 1.24 3.108 1.903 5.09 1.903 1.98 0 3.773-.663 5.088-1.903 1.31-1.235 2.021-2.927 2.08-4.78q.028-.838.037-1.868.075-.005.151-.005h.558c1.154 0 2.074.913 2.044 1.998-.127 4.726-3.196 8.207-7.786 9.05q-.044.412-.105.823a1.536 1.536 0 0 1-1.44 1.31 10 10 0 0 1-.628.019q-.364-.001-.628-.019a1.534 1.534 0 0 1-1.439-1.312 22 22 0 0 1-.101-.806C5.236 20.048 2.129 16.554 2 11.798 1.97 10.713 2.89 9.8 4.045 9.8z" clip-rule="evenodd"/></svg>
